images/Vector2.svg

<svg width="12" height="14" viewBox="0 0 12 14" fill="none" xmlns="http://www.w3.org/2000/svg">
<path d="M3.5443 0.142149C1.35696 0.608815 0 1.82621 0 3.32766C0 4.81983 1.76674 5.65974 2.96709 4.7378C3.39635 4.39037 3.58168 4.00423 3.64557 3.34795C3.64557 2.73925 3.42279 2.21171 3.05823 1.92766C2.9384 1.81919 2.85136 1.70066 2.8557 1.67403C2.87595 1.6436 3.21013 1.54215 3.59494 1.45084C5.78228 0.913163 7.90886 2.46534 8.54684 5.08273C9.1569 7.58854 8.54594 10.9057 6.01519 12.0929C4.77975 12.6711 2.84557 12.5798 1.33671 11.8697C0.972152 11.6972 0.668354 11.5755 0.648101 11.5856C0.430832 12.021 0.293707 12.5099 0.121519 12.9653L0.637975 13.1784C2.66329 13.99 5.41772 14.0813 7.43291 13.4219C13.4013 11.4438 13.3164 2.40071 7.43291 0.385626C6.24476 -0.0276737 4.77993 -0.123109 3.5443 0.142149Z" fill="#0082C6"/>
</svg>

<svg width="12" height="14" fill="none" xmlns="http://www.w3.org/2000/svg"><path d="M3.544.142C1.357.61 0 1.826 0 3.328 0 4.82 1.767 5.66 2.967 4.738c.43-.348.615-.734.679-1.39 0-.609-.223-1.136-.588-1.42-.12-.109-.207-.227-.202-.254.02-.03.354-.132.739-.223C5.782.913 7.909 2.465 8.547 5.083c.61 2.506-.001 5.823-2.532 7.01-1.235.578-3.17.487-4.678-.223-.365-.173-.669-.294-.689-.284-.217.435-.354.924-.526 1.38l.516.212c2.025.812 4.78.903 6.795.244C13.4 11.444 13.316 2.4 7.433.386 6.245-.028 4.78-.124 3.544.142z" fill="#0082C6"/></svg>
